Papirus-nordic/32x32/apps/system-file-manager.svg

<?xml version="1.0" encoding="UTF-8" standalone="no"?>
<svg
   xmlns:dc="http://purl.org/dc/elements/1.1/"
   xmlns:cc="http://creativecommons.org/ns#"
   xmlns:rdf="http://www.w3.org/1999/02/22-rdf-syntax-ns#"
   xmlns:svg="http://www.w3.org/2000/svg"
   xmlns="http://www.w3.org/2000/svg"
   xmlns:sodipodi="http://sodipodi.sourceforge.net/DTD/sodipodi-0.dtd"
   xmlns:inkscape="http://www.inkscape.org/namespaces/inkscape"
   width="32"
   height="32"
   version="1"
   id="svg26"
   sodipodi:docname="file-manager.svg"
   inkscape:version="0.92.4 5da689c313, 2019-01-14">
  <metadata
     id="metadata32">
    <rdf:RDF>
      <cc:Work
         rdf:about="">
        <dc:format>image/svg+xml</dc:format>
        <dc:type
           rdf:resource="http://purl.org/dc/dcmitype/StillImage" />
      </cc:Work>
    </rdf:RDF>
  </metadata>
  <defs
     id="defs30" />
  <sodipodi:namedview
     pagecolor="#ffffff"
     bordercolor="#666666"
     borderopacity="1"
     objecttolerance="10"
     gridtolerance="10"
     guidetolerance="10"
     inkscape:pageopacity="0"
     inkscape:pageshadow="2"
     inkscape:window-width="640"
     inkscape:window-height="515"
     id="namedview28"
     showgrid="false"
     inkscape:zoom="7.375"
     inkscape:cx="16"
     inkscape:cy="16"
     inkscape:window-x="0"
     inkscape:window-y="27"
     inkscape:window-maximized="0"
     inkscape:current-layer="svg26" />
  <rect
     style="fill:#82abaa;fill-opacity:1"
     width="24"
     height="17"
     x="4"
     y="1"
     rx="1.275"
     ry="1.275"
     id="rect2" />
  <rect
     style="opacity:0.1"
     width="24"
     height="17"
     x="4"
     y="3"
     rx="1.275"
     ry="1.275"
     id="rect4" />
  <rect
     style="fill:#a3be8c;fill-opacity:1"
     width="24"
     height="17"
     x="4"
     y="4"
     rx="1.275"
     ry="1.275"
     id="rect6" />
  <rect
     style="opacity:0.1"
     width="24"
     height="17"
     x="4"
     y="6"
     rx="1.275"
     ry="1.275"
     id="rect8" />
  <rect
     style="fill:#ebcb8b;fill-opacity:1"
     width="24"
     height="17"
     x="4"
     y="7"
     rx="1.275"
     ry="1.275"
     id="rect10" />
  <rect
     opacity=".2"
     width="28"
     height="20"
     x="2"
     y="11"
     rx="1.5"
     ry="1.5"
     id="rect12" />
  <rect
     fill="#8e8e8e"
     width="28"
     height="20"
     x="2"
     y="10"
     rx="1.5"
     ry="1.5"
     id="rect14"
     style="fill:#718382;fill-opacity:1" />
  <rect
     opacity=".2"
     width="10"
     height="3"
     x="11"
     y="19"
     rx="1"
     ry="1"
     id="rect16" />
  <rect
     fill="#ececec"
     width="10"
     height="3"
     x="11"
     y="18"
     rx="1"
     ry="1"
     id="rect18" />
  <path
     style="fill:#ffffff;opacity:0.1"
     d="M 5.2754 1 C 4.569 1 4 1.569 4 2.2754 L 4 3.2754 C 4 2.569 4.569 2 5.2754 2 L 26.725 2 C 27.431 2 28 2.569 28 3.2754 L 28 2.2754 C 28 1.569 27.431 1 26.725 1 L 5.2754 1 z"
     id="path20" />
  <path
     style="fill:#ffffff;opacity:0.1"
     d="M 5.2754,3.9996 C 4.569,3.9996 4,4.5686 4,5.275 V 6.275 C 4,5.5686 4.569,4.9996 5.2754,4.9996 H 26.725 C 27.431,4.9996 28,5.5686 28,6.275 V 5.275 C 28,4.5686 27.431,3.9996 26.725,3.9996 Z"
     id="path22" />
  <path
     style="fill:#ffffff;opacity:0.1"
     d="M 5.2754,6.9996 C 4.569,6.9996 4,7.5686 4,8.275 V 9.275 C 4,8.5686 4.569,7.9996 5.2754,7.9996 H 26.725 C 27.431,7.9996 28,8.5686 28,9.275 V 8.275 C 28,7.5686 27.431,6.9996 26.725,6.9996 Z"
     id="path24" />
</svg>

<svg xmlns="http://www.w3.org/2000/svg" width="32" height="32" version="1"><rect width="24" height="17" x="4" y="1" rx="1.275" ry="1.275" fill="#82abaa"/><rect width="24" height="17" x="4" y="3" rx="1.275" ry="1.275" opacity=".1"/><rect width="24" height="17" x="4" y="4" rx="1.275" ry="1.275" fill="#a3be8c"/><rect width="24" height="17" x="4" y="6" rx="1.275" ry="1.275" opacity=".1"/><rect width="24" height="17" x="4" y="7" rx="1.275" ry="1.275" fill="#ebcb8b"/><rect opacity=".2" width="28" height="20" x="2" y="11" rx="1.5" ry="1.5"/><rect fill="#718382" width="28" height="20" x="2" y="10" rx="1.5" ry="1.5"/><rect opacity=".2" width="10" height="3" x="11" y="19" rx="1" ry="1"/><rect fill="#ececec" width="10" height="3" x="11" y="18" rx="1" ry="1"/><path d="M5.275 1C4.57 1 4 1.569 4 2.275v1C4 2.57 4.569 2 5.275 2h21.45C27.431 2 28 2.569 28 3.275v-1C28 1.57 27.431 1 26.725 1H5.275zM5.275 4C4.57 4 4 4.569 4 5.275v1C4 5.569 4.569 5 5.275 5h21.45C27.431 5 28 5.569 28 6.275v-1C28 4.569 27.431 4 26.725 4zM5.275 7C4.57 7 4 7.569 4 8.275v1C4 8.569 4.569 8 5.275 8h21.45C27.431 8 28 8.569 28 9.275v-1C28 7.569 27.431 7 26.725 7z" fill="#fff" opacity=".1"/></svg>
